X:389
T:Rondeau de Gascogne
R:rondeau
C:trad.
A:Gascogne
O:France
Z:S. Piron
M:6/8
L:1/8
Q:1/4=185
K:C
e2fg2g|g2fe3|edef2f|1fede2c:|2fedc3|
K:G
|:E2GB2G|A2Bc2A|E2FA2F|1G2AB2G:|2G2BG3||
